svg/r.svg

<svg xmlns="http://www.w3.org/2000/svg" width="724" height="561" preserveAspectRatio="xMidYMid"><defs><linearGradient id="a" x1="0" x2="1" y1="0" y2="1" gradientUnits="objectBoundingBox" spreadMethod="pad"><stop offset="0" stop-color="#CBCED0"/><stop offset="1" stop-color="#84838B"/></linearGradient><linearGradient id="b" x1="0" x2="1" y1="0" y2="1" gradientUnits="objectBoundingBox" spreadMethod="pad"><stop offset="0" stop-color="#276DC3"/><stop offset="1" stop-color="#165CAA"/></linearGradient></defs><path fill="url(#a)" fill-rule="evenodd" d="M361.453 485.937C162.329 485.937.906 377.828.906 244.469.906 111.109 162.329 3 361.453 3 560.578 3 722 111.109 722 244.469c0 133.359-161.422 241.468-360.547 241.468Zm55.188-388.531c-151.352 0-274.047 73.908-274.047 165.078s122.695 165.078 274.047 165.078c151.351 0 263.046-50.529 263.046-165.078 0-114.513-111.695-165.078-263.046-165.078Z"/><path fill="url(#b)" fill-rule="evenodd" d="M550 377s21.822 6.585 34.5 13c4.399 2.226 12.01 6.668 17.5 12.5 5.378 5.712 8 11.5 8 11.5l86 145-139 .062L492 437s-13.31-22.869-21.5-29.5c-6.832-5.531-9.745-7.5-16.5-7.5h-33.026L421 558.974l-123 .052V152.938h247S657.5 154.967 657.5 262 550 377 550 377Zm-53.5-135.976-74.463-.048-.037 69.05 74.5-.024s34.5-.107 34.5-35.125c0-35.722-34.5-33.853-34.5-33.853Z"/></svg>

<svg xmlns="http://www.w3.org/2000/svg" xmlns:xlink="http://www.w3.org/1999/xlink" preserveAspectRatio="xMidYMid" width="724" height="561" viewBox="0 0 724 561">
  <defs>
    <linearGradient id="gradientFill-1" x1="0" x2="1" y1="0" y2="1" gradientUnits="objectBoundingBox" spreadMethod="pad">
      <stop offset="0" stop-color="rgb(203,206,208)" stop-opacity="1"/>
      <stop offset="1" stop-color="rgb(132,131,139)" stop-opacity="1"/>
    </linearGradient>
    <linearGradient id="gradientFill-2" x1="0" x2="1" y1="0" y2="1" gradientUnits="objectBoundingBox" spreadMethod="pad">
      <stop offset="0" stop-color="rgb(39,109,195)" stop-opacity="1"/>
      <stop offset="1" stop-color="rgb(22,92,170)" stop-opacity="1"/>
    </linearGradient>
  </defs>
  <path d="M361.453,485.937 C162.329,485.937 0.906,377.828 0.906,244.469 C0.906,111.109 162.329,3.000 361.453,3.000 C560.578,3.000 722.000,111.109 722.000,244.469 C722.000,377.828 560.578,485.937 361.453,485.937 ZM416.641,97.406 C265.289,97.406 142.594,171.314 142.594,262.484 C142.594,353.654 265.289,427.562 416.641,427.562 C567.992,427.562 679.687,377.033 679.687,262.484 C679.687,147.971 567.992,97.406 416.641,97.406 Z" fill="url(#gradientFill-1)" fill-rule="evenodd"/>
  <path d="M550.000,377.000 C550.000,377.000 571.822,383.585 584.500,390.000 C588.899,392.226 596.510,396.668 602.000,402.500 C607.378,408.212 610.000,414.000 610.000,414.000 L696.000,559.000 L557.000,559.062 L492.000,437.000 C492.000,437.000 478.690,414.131 470.500,407.500 C463.668,401.969 460.755,400.000 454.000,400.000 C449.298,400.000 420.974,400.000 420.974,400.000 L421.000,558.974 L298.000,559.026 L298.000,152.938 L545.000,152.938 C545.000,152.938 657.500,154.967 657.500,262.000 C657.500,369.033 550.000,377.000 550.000,377.000 ZM496.500,241.024 L422.037,240.976 L422.000,310.026 L496.500,310.002 C496.500,310.002 531.000,309.895 531.000,274.877 C531.000,239.155 496.500,241.024 496.500,241.024 Z" fill="url(#gradientFill-2)" fill-rule="evenodd"/>
</svg>
